img/toolbar/limits_fit_y.svg

<?xml version="1.0" encoding="UTF-8" standalone="no"?>
<svg
   xmlns:dc="http://purl.org/dc/elements/1.1/"
   xmlns:cc="http://creativecommons.org/ns#"
   xmlns:rdf="http://www.w3.org/1999/02/22-rdf-syntax-ns#"
   xmlns:svg="http://www.w3.org/2000/svg"
   xmlns="http://www.w3.org/2000/svg"
   xmlns:xlink="http://www.w3.org/1999/xlink"
   xmlns:sodipodi="http://sodipodi.sourceforge.net/DTD/sodipodi-0.dtd"
   xmlns:inkscape="http://www.inkscape.org/namespaces/inkscape"
   height="24"
   width="24"
   version="1.1"
   id="svg10231"
   sodipodi:docname="limits_fit_y.svg"
   inkscape:version="0.92.3 (2405546, 2018-03-11)">
  <metadata
     id="metadata10237">
    <rdf:RDF>
      <cc:Work
         rdf:about="">
        <dc:format>image/svg+xml</dc:format>
        <dc:type
           rdf:resource="http://purl.org/dc/dcmitype/StillImage" />
        <dc:title></dc:title>
      </cc:Work>
    </rdf:RDF>
  </metadata>
  <defs
     id="defs10235">
    <linearGradient
       inkscape:collect="always"
       xlink:href="#a"
       id="linearGradient10786"
       gradientUnits="userSpaceOnUse"
       x1="-.5"
       y1="21.5"
       x2="24.5"
       y2="21.5"
       gradientTransform="rotate(-90,2.5,21.5)" />
    <linearGradient
       inkscape:collect="always"
       xlink:href="#a"
       id="linearGradient10788"
       gradientUnits="userSpaceOnUse"
       x1="22.410208"
       y1="21.5"
       x2="19.5"
       y2="21.5"
       gradientTransform="rotate(-90,2,21)" />
  </defs>
  <sodipodi:namedview
     pagecolor="#ffffff"
     bordercolor="#666666"
     borderopacity="1"
     objecttolerance="10"
     gridtolerance="10"
     guidetolerance="10"
     inkscape:pageopacity="0"
     inkscape:pageshadow="2"
     inkscape:window-width="1920"
     inkscape:window-height="1137"
     id="namedview10233"
     showgrid="false"
     inkscape:zoom="19.666667"
     inkscape:cx="5.5751082"
     inkscape:cy="13.081693"
     inkscape:window-x="-8"
     inkscape:window-y="-8"
     inkscape:window-maximized="1"
     inkscape:current-layer="svg10231" />
  <linearGradient
     id="a">
    <stop
       offset="0"
       stop-color="#305080"
       id="stop10167" />
    <stop
       offset="1"
       stop-color="#5b79a4"
       id="stop10169" />
  </linearGradient>
  <linearGradient
     id="b"
     gradientUnits="userSpaceOnUse"
     x1="-.5"
     x2="24.5"
     xlink:href="#a"
     y1="21.5"
     y2="21.5" />
  <linearGradient
     id="c"
     gradientUnits="userSpaceOnUse"
     x1="20"
     x2="20"
     y1="19"
     y2="24">
    <stop
       offset="0"
       stop-color="#5080e0"
       id="stop10173" />
    <stop
       offset="1"
       stop-color="#4058a0"
       id="stop10175" />
  </linearGradient>
  <linearGradient
     id="d"
     gradientUnits="userSpaceOnUse"
     x1="22.410208"
     x2="19.5"
     xlink:href="#a"
     y1="21.5"
     y2="21.5"
     gradientTransform="translate(1)" />
  <path
     id="path12970"
     style="fill:none;stroke:#008626;stroke-dasharray:1, 1"
     d="M 0,5.5 H 24 M 0,17.5 H 24" />
  <path
     d="M 0,5 H 24 V 18 H 0 Z"
     id="path11646"
     inkscape:connector-curvature="0"
     style="fill:#00ff4a;fill-opacity:0.16666703" />
  <path
     d="m0 21.5h23"
     fill="none"
     stroke="url(#b)"
     id="path10189" />
  <path
     d="m 21,19.5 3,2 -3,2"
     id="path10191"
     style="fill:url(#d);fill-rule:evenodd;stroke:none;stroke-linecap:round"
     inkscape:connector-curvature="0" />
  <path
     inkscape:connector-curvature="0"
     style="fill:none;stroke:url(#linearGradient10786)"
     id="path10193"
     d="M 2.5,24 V 1" />
  <path
     inkscape:connector-curvature="0"
     style="fill:url(#linearGradient10788);fill-rule:evenodd;stroke:none;stroke-linecap:round"
     id="path10195"
     d="m 0.5,3 2,-3 2,3" />
  <g
     transform="translate(40,1)"
     id="g10217">
    <path
       d="M 12.5,18 V 3"
       id="path10209"
       inkscape:connector-curvature="0"
       style="fill:none;stroke:#000000" />
    <g
       id="g10215"
       style="fill-rule:evenodd">
      <path
         d="m 8.5,5 4,-6 4,6"
         id="path10211"
         inkscape:connector-curvature="0" />
      <path
         d="m 8.5,16 4,6 4,-6"
         id="path10213"
         inkscape:connector-curvature="0" />
    </g>
  </g>
  <g
     transform="rotate(-90,33,-9)"
     id="g10227">
    <path
       d="M 12.5,18 V 3"
       id="path10219"
       inkscape:connector-curvature="0"
       style="fill:none;stroke:#000000" />
    <g
       id="g10225"
       style="fill-rule:evenodd">
      <path
         d="m 8.5,5 4,-6 4,6"
         id="path10221"
         inkscape:connector-curvature="0" />
      <path
         d="m 8.5,16 4,6 4,-6"
         id="path10223"
         inkscape:connector-curvature="0" />
    </g>
  </g>
  <path
     style="fill:none;fill-rule:evenodd;stroke:#007f00;stroke-width:1.25;stroke-linecap:butt;stroke-linejoin:round;stroke-miterlimit:4;stroke-dasharray:none;stroke-opacity:1"
     d="M -1.6271186,15.40678 6.1016944,5.1864407 12.355932,17.898304 18.521414,8.2671894 25.220338,15.915254"
     id="path10782"
     inkscape:connector-curvature="0"
     sodipodi:nodetypes="ccccc" />
  <circle
     cx="6.1016941"
     cy="5.1355944"
     r="1.3728814"
     id="circle10796"
     style="opacity:1;fill:#000000;fill-opacity:0.64705882;stroke:none;stroke-width:1;stroke-linecap:round;stroke-linejoin:round;stroke-miterlimit:4;stroke-dasharray:none;stroke-dashoffset:0;stroke-opacity:0.34901961;paint-order:normal" />
  <circle
     style="opacity:1;fill:#000000;fill-opacity:0.64705882;stroke:none;stroke-width:1;stroke-linecap:round;stroke-linejoin:round;stroke-miterlimit:4;stroke-dasharray:none;stroke-dashoffset:0;stroke-opacity:0.34901961;paint-order:normal"
     id="circle10798"
     r="1.3728814"
     cy="17.847454"
     cx="12.305084" />
  <circle
     cx="18.457626"
     cy="8.2372875"
     r="1.3728814"
     id="circle10800"
     style="opacity:1;fill:#000000;fill-opacity:0.64705882;stroke:none;stroke-width:1;stroke-linecap:round;stroke-linejoin:round;stroke-miterlimit:4;stroke-dasharray:none;stroke-dashoffset:0;stroke-opacity:0.34901961;paint-order:normal" />
</svg>

<svg height="24" width="24" xmlns="http://www.w3.org/2000/svg" xmlns:xlink="http://www.w3.org/1999/xlink">
<linearGradient id="a" gradientTransform="matrix(0 -1 1 0 -19 24)" gradientUnits="userSpaceOnUse" x1="-.5" x2="24.5" xlink:href="#c" y1="21.5" y2="21.5"/>
<linearGradient id="b" gradientTransform="matrix(0 -1 1 0 -19 23)" gradientUnits="userSpaceOnUse" x1="22.41" x2="19.5" xlink:href="#c" y1="21.5" y2="21.5"/>
<linearGradient id="c">
<stop offset="0" stop-color="#305080"/>
<stop offset="1" stop-color="#5b79a4"/>
</linearGradient>
<linearGradient id="d" gradientUnits="userSpaceOnUse" x1="-.5" x2="24.5" xlink:href="#c" y1="21.5" y2="21.5"/>
<linearGradient id="e" gradientUnits="userSpaceOnUse" x1="23.41" x2="20.5" xlink:href="#c" y1="21.5" y2="21.5"/>
<path d="m0 5.5h24m-24 12h24" fill="none" stroke="#008626" stroke-dasharray="1 1"/>
<path d="m0 5h24v13h-24z" fill="#00ff4a" fill-opacity=".17"/>
<path d="m0 21.5h23" fill="none" stroke="url(#d)"/>
<path d="m21 19.5 3 2-3 2" fill="url(#e)" fill-rule="evenodd"/>
<path d="m2.5 24v-23" fill="none" stroke="url(#a)"/>
<path d="m.5 3 2-3 2 3" fill="url(#b)" fill-rule="evenodd"/>
<g transform="translate(40 1)">
<path d="m12.5 18v-15" fill="none" stroke="#000"/>
<g fill-rule="evenodd">
<path d="m8.5 5 4-6 4 6"/>
<path d="m8.5 16 4 6 4-6"/>
</g>
</g>
<g transform="matrix(0 -1 1 0 42 24)">
<path d="m12.5 18v-15" fill="none" stroke="#000"/>
<g fill-rule="evenodd">
<path d="m8.5 5 4-6 4 6"/>
<path d="m8.5 16 4 6 4-6"/>
</g>
</g>
<path d="m-1.63 15.41 7.73-10.22 6.26 12.71 6.16-9.63 6.7 7.65" fill="none" stroke="#007f00" stroke-linejoin="round" stroke-width="1.25"/>
<g fill-opacity=".65">
<circle cx="6.1" cy="5.14" r="1.37"/>
<circle cx="12.31" cy="17.85" r="1.37"/>
<circle cx="18.46" cy="8.24" r="1.37"/>
</g>
</svg>
